X:2246
T:One fine sabbath morn
T:Jacob's ladder 
C:John Callister Mylecharane, Jurby bridge
C:Traditional
O:Isle of Man
Z:Clague collection
B:KV246 
M:4/4 
L:1/8 
K:G 
DD|G2GG (GB)GG|A2AA AcBA|D6 GB|d2dd d2cB|c2dc B2GB|d2 Bd dB AF|G6|| 

